X:1
T:Across the Templed Hills
T:Ira Bishop Wilson
T:Across the Templed Hills
T:Public Domain
T:Public Domain
C:Ira Bishop Wilson
Z:Public Domain
%%score ( 1 2 ) ( 3 4 )
L:1/8
M:9/8
K:Bb
V:1 treble 
V:2 treble 
V:3 bass 
V:4 bass 
V:1
 [DF] [^C=E]2 [DF] | [Fd]3- [Fd]2 [Ec] ([DB][FA])[EG] | [DF]6 [DB]3 | [EA]3- [EA]2 [Ec] (GA)[EG] | %4
w: 1.~Now sweeps a|song * of sol- * emn|joy A-|cross * the tem- * pled|
w: 2.~The tune- ful|notes * still ring * a-|far, Like|bells * that gai- * ly|
w: 3.~We hear a-|gain * the bliss- * ful|strain, The|mes- * sage breathed * once|
 [DF]3- [DF]2 [DF] [^C=E]2 [DF] | [Fd]3- [Fd]2 [Ec] ([DB][FA])[EG] | [DF]6 [_DG]3 | %7
w: From * ser- aph harps|sweet * mu- sic * floats,|That earth|
w: Thro’ * moon- lit skies,|form * star to * star,|To hail|
w: “All * glo- ry be|to * God!” we * cry,|Whose Name|
 [CA]3- ([CA][DB])[CA] [CA]2 [B,G] | [A,F]6 ||[M:4/4]"^Refrain" [B,D]>[CE] | %10
w: and * * Heav- en thrills.|||
w: the * * Christ- mas- time.|Hark|the song,|
w: our * * souls a- dore.|||
 [DF]2 [Fd]2 [Fd]2 [Dc]>[DA] | [Ec]>[EB] [EA]>[EG] [DF]2 [DF]>[DB] | [EB]2 [EA]2 [EA]2 [EG]>[EA] | %13
w: |||
w: glad song, O- ver- flow-|ing all the earth! Hark the an-|them sweet, Bring- ing news|
w: |||
 [EG]>[DF] [^C=E]>[DF] [B,D]2 [B,D]>[=C_E] | [DF]2 [Fd]2 [Fd]2 [Dc]>[DA] | %15
w: ||
w: of Je- sus’ birth! While the mid-|night skies With a won-|
w: ||
 [Ec]>[EB] [EA]>[EG] [DF]2 [Fd]>[Fd] | [Ee]2 [=EB][EB] [Fd]3 [_Ec] | [DB]4 z |] %18
w: |||
w: drous beau- ty glow, Comes the Christ-|Child to dwell be- low.||
w: |||
V:2
 x4 | x9 | x9 | x6 E2 x | x9 | x9 | x9 | x9 | x6 ||[M:4/4] x2 | x8 | x8 | x8 | x8 | x8 | x8 | x8 | %17
w: |||hills;||||||||||||||
w: |||chime,||||||||||||||
w: |||more;||||||||||||||
 x5 |] %18
w: |
w: |
w: |
V:3
 z4 | B,,(D,F, B,2) z F,2 z | (B,,D,F, B,2) z F,2 z | (F,,A,,C, F,2) z F,,2 z | (B,,D,F, B,2) z4 | %5
 (B,,D,F, B,2) z F,2 z | (B,,D,F, B,2) z F,2 z | (C,=B,,C, =E,2) z C,2 z | (F,C,A,, F,,3) || %9
 [B,,F,]>[B,,F,] | [B,,B,]2 [B,,B,]2 [B,,B,]2 [B,,F,]>[B,,^F,] | %11
 [B,,G,]>[B,,G,][B,,G,]>[B,,A,] [B,,B,]2 [B,,B,]>[B,,F,] | [C,F,]2 [C,F,]2 [F,C]2 [F,C]>[F,C] | %13
 [B,,B,]>[B,,B,][B,,B,]>[B,,B,] [B,,F,]2 [B,,F,]>[B,,F,] | %14
 [B,,B,]2 [B,,B,]2 [B,,B,]2 [B,,F,]>[B,,^F,] | [B,,G,]>[B,,G,][B,,G,]>[B,,A,] [B,,B,]2 B,>[_A,B,] | %16
 [G,B,]2 [_G,B,] [G,B,](B,A,) (=G,[F,A,]) | [B,,F,]4 z |] %18
V:4
 x4 | x9 | x9 | x9 | x9 | x9 | x9 | x9 | x6 || x2 | x8 | x8 | x8 | x8 | x8 | x6 B,3/2 x/ | %16
 x4 F,3 x | x5 |] %18

